formas-de-pagamento/bradesco-v2.svg

<svg enable-background="new 0 0 60 40" height="40" viewBox="0 0 60 40" width="60" xmlns="http://www.w3.org/2000/svg"><switch><foreignObject height="1" requiredExtensions="http://ns.adobe.com/AdobeIllustrator/10.0/" width="1"/><g><path d="m60 35c0 2.75-2.25 5-5 5h-50c-2.75 0-5-2.25-5-5v-30c0-2.75 2.25-5 5-5h50c2.75 0 5 2.25 5 5z" fill="#f5f5f5"/><path d="m55 0h-50c-2.75 0-5 2.25-5 5v30c0 2.75 2.25 5 5 5h50c2.75 0 5-2.25 5-5v-30c0-2.75-2.25-5-5-5zm0 1c2.206 0 4 1.794 4 4v30c0 2.206-1.794 4-4 4h-50c-2.206 0-4-1.794-4-4v-30c0-2.206 1.794-4 4-4z" fill="#fff"/><path d="m39.268 6.044h-23.224v23.224c0 4.689 4.688 4.689 4.688 4.689h23.225v-23.225c-.001-4.688-4.689-4.688-4.689-4.688z" fill="#ef182c"/><path d="m29.317 29.707h-1.375v-7.042h1.375zm3.501 0h-2.251v-9.666h2.251zm5.868-9.211c-1.021 1.902-3.39 2.672-3.39 2.672-.264.109-.381-.059-.381-.059-.141-.216.118-.367.118-.367 1.547-1.066 1.955-2.245 1.955-2.245 1.411-3.39-4.192-5.218-4.192-5.218-3.299-1.242-7.168-.701-7.168-.701-1.016 1.601-1.144 3.623-.873 5.085.326 1.798 1.164 3.059 1.164 3.059.115.192-.047.31-.047.31-.187.123-.358-.056-.358-.056-1.053-.952-1.74-2.136-2.117-3.298-.847-2.613-.036-4.718-.036-4.718-1.009.225-2.056.586-2.056.586-.291.138-.399-.048-.399-.048-.126-.258.207-.391.207-.391 1.127-.632 2.63-1.119 2.63-1.119 1.055-2.146 2.956-2.933 2.956-2.933 3.09-1.455 6.098-.379 6.098-.379 2.188.68 3.297 2.218 3.297 2.218.208.219.022.367.022.367-.148.147-.34-.034-.34-.034-1.29-1.145-2.973-1.406-2.973-1.406-3.824-.73-6.094 1.487-6.094 1.487 2.973-.448 6.088.322 6.088.322 1.728.385 3.072 1.104 3.072 1.104 4.892 2.588 2.817 5.762 2.817 5.762z" fill="#fff"/></g></switch></svg>

<?xml version="1.0" encoding="UTF-8"?>
<svg width="60px" height="40px" viewBox="0 0 60 40" version="1.1" xmlns="http://www.w3.org/2000/svg" xmlns:xlink="http://www.w3.org/1999/xlink">
    <!-- Generator: Sketch 52.4 (67378) - http://www.bohemiancoding.com/sketch -->
    <title>Artboard</title>
    <desc>Created with Sketch.</desc>
    <g id="Artboard" stroke="none" stroke-width="1" fill="none" fill-rule="evenodd">
        <g id="bradesco-v2">
            <path d="M60,35 C60,37.75 57.75,40 55,40 L5,40 C2.25,40 0,37.75 0,35 L0,5 C0,2.25 2.25,0 5,0 L55,0 C57.75,0 60,2.25 60,5 L60,35 Z" id="Path" fill="#F5F5F5"></path>
            <path d="M55,0 L5,0 C2.25,0 0,2.25 0,5 L0,35 C0,37.75 2.25,40 5,40 L55,40 C57.75,40 60,37.75 60,35 L60,5 C60,2.25 57.75,0 55,0 Z M55,1 C57.206,1 59,2.794 59,5 L59,35 C59,37.206 57.206,39 55,39 L5,39 C2.794,39 1,37.206 1,35 L1,5 C1,2.794 2.794,1 5,1 L55,1 Z" id="Shape" fill="#D0D0D0" fill-rule="nonzero"></path>
            <path d="M39.268,6.044 L16.044,6.044 L16.044,29.268 C16.044,33.957 20.732,33.957 20.732,33.957 L43.957,33.957 L43.957,10.732 C43.956,6.044 39.268,6.044 39.268,6.044 Z" id="Path" fill="#EF182C"></path>
            <path d="M29.317,29.707 L27.942,29.707 L27.942,22.665 L29.317,22.665 L29.317,29.707 Z M32.818,29.707 L30.567,29.707 L30.567,20.041 L32.818,20.041 L32.818,29.707 Z M38.686,20.496 C37.665,22.398 35.296,23.168 35.296,23.168 C35.032,23.277 34.915,23.109 34.915,23.109 C34.774,22.893 35.033,22.742 35.033,22.742 C36.58,21.676 36.988,20.497 36.988,20.497 C38.399,17.107 32.796,15.279 32.796,15.279 C29.497,14.037 25.628,14.578 25.628,14.578 C24.612,16.179 24.484,18.201 24.755,19.663 C25.081,21.461 25.919,22.722 25.919,22.722 C26.034,22.914 25.872,23.032 25.872,23.032 C25.685,23.155 25.514,22.976 25.514,22.976 C24.461,22.024 23.774,20.84 23.397,19.678 C22.55,17.065 23.361,14.96 23.361,14.96 C22.352,15.185 21.305,15.546 21.305,15.546 C21.014,15.684 20.906,15.498 20.906,15.498 C20.78,15.24 21.113,15.107 21.113,15.107 C22.24,14.475 23.743,13.988 23.743,13.988 C24.798,11.842 26.699,11.055 26.699,11.055 C29.789,9.6 32.797,10.676 32.797,10.676 C34.985,11.356 36.094,12.894 36.094,12.894 C36.302,13.113 36.116,13.261 36.116,13.261 C35.968,13.408 35.776,13.227 35.776,13.227 C34.486,12.082 32.803,11.821 32.803,11.821 C28.979,11.091 26.709,13.308 26.709,13.308 C29.682,12.86 32.797,13.63 32.797,13.63 C34.525,14.015 35.869,14.734 35.869,14.734 C40.761,17.322 38.686,20.496 38.686,20.496 Z" id="Shape" fill="#FFFFFF" fill-rule="nonzero"></path>
        </g>
    </g>
</svg>
